X:52
T:The Brosna Polkas No. 3
T:Ned Connor's Set No. 3
N:This tune is 'Captain Byng'.
Z:Ed Barrett
R:polka
M:2/4
L:1/8
K:G
g3d|BG GA/2B/2|cA ag|fd ef|
g3d|BG GA/2B/2|cA dF|[1 G2 de/2f/2:|][2G2 GA|]
|:BG dG|BG GA/2B/2|cA eA|cA Ac|
BG dG|BG GA/2B/2|cA dF|[1 G2 GA:|][2 G2 de/2f/2|]
